svg/printer_pos_edit_outline.svg

<svg xmlns="http://www.w3.org/2000/svg" viewBox="0 0 24 24"><path d="M6 17v-5h12.13l1.26-1.26c.03-.03.06-.05.11-.07-.39-.41-.91-.67-1.5-.67h-1V4H7v6H6a2 2 0 0 0-2 2v7h7.13l2-2zM9 6h6v4H9zm-2 9v-2h4v2zm15.85-.81-.98.98-2.04-2.04.98-.98c.19-.2.52-.2.72 0l1.32 1.32c.2.2.2.53 0 .72m-3.72-.36 2.04 2.04L15.04 22H13v-2.04z"/></svg>

<svg xmlns="http://www.w3.org/2000/svg" id="mdi-printer-pos-edit-outline" viewBox="0 0 24 24"><path d="M6 17V12H18.13L19.39 10.74C19.42 10.71 19.45 10.69 19.5 10.67C19.11 10.26 18.59 10 18 10H17V4H7V10H6C4.89 10 4 10.9 4 12V19H11.13L13.13 17H6M9 6H15V10H9V6M7 15V13H11V15H7M22.85 14.19L21.87 15.17L19.83 13.13L20.81 12.15C21 11.95 21.33 11.95 21.53 12.15L22.85 13.47C23.05 13.67 23.05 14 22.85 14.19M19.13 13.83L21.17 15.87L15.04 22H13V19.96L19.13 13.83Z" /></svg>
